style-guide/assets/xd-icons-controls.svg

<?xml version="1.0" encoding="UTF-8"?>
<svg width="24px" height="24px" viewBox="0 0 24 24" version="1.1" xmlns="http://www.w3.org/2000/svg" xmlns:xlink="http://www.w3.org/1999/xlink">
    <!-- Generator: Sketch 51.3 (57544) - http://www.bohemiancoding.com/sketch -->
    <title>controls</title>
    <desc>Created with Sketch.</desc>
    <defs>
        <path d="M2,5 L10,5 L10,6 C10,6.553 10.448,7 11,7 C11.552,7 12,6.553 12,6 L12,2 C12,1.447 11.552,1 11,1 C10.448,1 10,1.447 10,2 L10,3 L2,3 C1.448,3 1,3.447 1,4 C1,4.553 1.448,5 2,5 M16,5 L22,5 C22.552,5 23,4.553 23,4 C23,3.447 22.552,3 22,3 L16,3 C15.448,3 15,3.447 15,4 C15,4.553 15.448,5 16,5 M22,9 C21.448,9 21,9.447 21,10 L21,11 L2,11 C1.448,11 1,11.447 1,12 C1,12.553 1.448,13 2,13 L21,13 L21,14 C21,14.553 21.448,15 22,15 C22.552,15 23,14.553 23,14 L23,10 C23,9.447 22.552,9 22,9 M11,17 C10.448,17 10,17.447 10,18 L10,19 L2,19 C1.448,19 1,19.447 1,20 C1,20.553 1.448,21 2,21 L10,21 L10,22 C10,22.553 10.448,23 11,23 C11.552,23 12,22.553 12,22 L12,18 C12,17.447 11.552,17 11,17 M22,19 L16,19 C15.448,19 15,19.447 15,20 C15,20.553 15.448,21 16,21 L22,21 C22.552,21 23,20.553 23,20 C23,19.447 22.552,19 22,19" id="path-1"></path>
    </defs>
    <g id="controls" stroke="none" stroke-width="1" fill="none" fill-rule="evenodd">
        <mask id="mask-2" fill="white">
            <use xlink:href="#path-1"></use>
        </mask>
        <use id="icons/24px/Controls" fill="#000000" xlink:href="#path-1"></use>
    </g>
</svg>

<svg viewBox="0 0 24 24" xmlns="http://www.w3.org/2000/svg" xmlns:xlink="http://www.w3.org/1999/xlink">
  <path d="M2 5h8v1a1 1 0 1 0 2 0V2a1 1 0 1 0-2 0v1H2a1 1 0 1 0 0 2m14 0h6a1 1 0 1 0 0-2h-6a1 1 0 1 0 0 2m6 4a1 1 0 0 0-1 1v1H2a1 1 0 1 0 0 2h19v1a1 1 0 1 0 2 0v-4a1 1 0 0 0-1-1m-11 8a1 1 0 0 0-1 1v1H2a1 1 0 1 0 0 2h8v1a1 1 0 1 0 2 0v-4a1 1 0 0 0-1-1m11 2h-6a1 1 0 1 0 0 2h6a1 1 0 1 0 0-2"/>
</svg>
